X:1
T:Merced, 77.77
T:Merced, 77.77
T:Asa Hull, 1871
T:Public Domain Courtesy of the Cyber Hymnal™
C:Asa Hull, 1871
Z:Public Domain
Z:Courtesy of the Cyber Hymnal™
%%score ( 1 2 ) ( 3 4 )
L:1/8
Q:1/4=107
M:4/4
K:Ab
V:1 treble 
V:2 treble 
V:3 bass 
V:4 bass 
V:1
 [Ec]2 [CE]2 [DF]2 [CE]2 | [FA]2 [GB]2 [Ac]4 | [Ad]2 [Ac]2 [GB]2 A2 | [EG]2 A2 [GB]4 | %4
 [Ec]2 [Ec]2 [Ec]2 [DB]2 | [CA]2 [EG]2 !fermata![DF]4 | [DF]2 [DF]2 [CE]2 (AB) | %7
 [Ac]2 [EB]2 !fermata![EA]4 |] %8
V:2
 x8 | x8 | x6 A2 | x2 A2 x4 | x8 | x8 | x6 A2 | x8 |] %8
V:3
 [A,,A,]2 [A,,A,]2 [A,,A,]2 [A,,A,]2 | [F,A,]2 [E,E]2 [A,E]4 | [F,D]2 [E,E]2 [D,E]2 [C,E]2 | %3
 [B,,D]2 [A,,C]2 [E,E]4 | A,2 A,2 [A,,A,]2 [A,,A,]2 | [A,,A,]2 [C,A,]2 !fermata![D,A,]4 | %6
 [D,A,]2 [D,A,]2 A,2 (CD) | [E,E]2 [E,D]2 !fermata![A,,A,C]4 |] %8
V:4
 x8 | x8 | x8 | x8 | A,2 A,2 x4 | x8 | x4 A,2 F,2 | x8 |] %8

